packages/icon/src/svg/tag-management.icon.svg

<svg width="24" height="24" viewBox="0 0 24 24" fill="none" xmlns="http://www.w3.org/2000/svg">
<path fill-rule="evenodd" clip-rule="evenodd" d="M14.4052 19.1124C14.6005 18.9171 14.6005 18.6005 14.4053 18.4053L13.6036 17.6036C13.4083 17.4083 13.0917 17.4083 12.8964 17.6036L12 18.5L3.00434 9.60343L3 5H7.60154L12.9149 10.374C13.1098 10.5711 13.428 10.572 13.624 10.376L14.3187 9.68127C14.514 9.48605 14.514 9.16954 14.3188 8.97426L8.65205 3.30436C8.45728 3.10949 8.19306 3 7.91754 3H2.03846C1.46455 3 0.999461 3.46553 1 4.03944L1.00554 9.9199C1.0058 10.195 1.1152 10.4587 1.30972 10.6533L11.353 20.6959C11.7586 21.1014 12.416 21.1014 12.8216 20.6959L14.4052 19.1124Z" fill="white"/>
<path fill-rule="evenodd" clip-rule="evenodd" d="M5.61539 9.11538C6.44381 9.11538 7.11539 8.44381 7.11539 7.61538C7.11539 6.78696 6.44381 6.11538 5.61539 6.11538C4.78696 6.11538 4.11539 6.78696 4.11539 7.61538C4.11539 8.44381 4.78696 9.11538 5.61539 9.11538Z" fill="white"/>
<path fill-rule="evenodd" clip-rule="evenodd" d="M16 9.5C16 9.22388 16.2239 9 16.5 9H17.5C17.7761 9 18 9.22388 18 9.5V13H21.5C21.7761 13 22 13.2239 22 13.5V14.5C22 14.7761 21.7761 15 21.5 15H18V18.5C18 18.7761 17.7761 19 17.5 19H16.5C16.2239 19 16 18.7761 16 18.5V15H12.5C12.2239 15 12 14.7761 12 14.5V13.5C12 13.2239 12.2239 13 12.5 13H16V9.5Z" fill="white"/>
</svg>

<svg aria-label="tag management icon" viewBox="0 0 24 24"><path fill-rule="evenodd" clip-rule="evenodd" d="M14.405 19.112a.5.5 0 000-.707l-.801-.801a.5.5 0 00-.708 0L12 18.5 3.004 9.603 3 5h4.602l5.313 5.374a.5.5 0 00.709.002l.695-.695a.5.5 0 000-.707l-5.667-5.67A1.038 1.038 0 007.918 3h-5.88A1.04 1.04 0 001 4.04l.006 5.88c0 .275.11.539.304.733l10.043 10.043a1.039 1.039 0 001.469 0l1.583-1.584z"/><path fill-rule="evenodd" clip-rule="evenodd" d="M5.615 9.115a1.5 1.5 0 100-3 1.5 1.5 0 000 3zM16 9.5a.5.5 0 01.5-.5h1a.5.5 0 01.5.5V13h3.5a.5.5 0 01.5.5v1a.5.5 0 01-.5.5H18v3.5a.5.5 0 01-.5.5h-1a.5.5 0 01-.5-.5V15h-3.5a.5.5 0 01-.5-.5v-1a.5.5 0 01.5-.5H16V9.5z"/></svg>
